X: 243
T: Julia Ann Johnson [2]
B: canberra pickers and fiddlers
B: tunes
M:4/4
L:1/8
Q: 1/4=100
K:D
V:1 
%
"D"fgfe dBAB|Addd d2(ef-|f)a2b a2b2|"A7"f3f f3e-|
"D"fgfe dBAB|"D"Addd ""d2(ef-|"D"f)def "G"d2B2|"D"A3 A A4:||
|:"G"Bd2e dBAd|"G"Bd2e ""d2ed|"G"Bd ded2B2|"D"A3 A A3(A|
"G"B)d2e dBAd|Bd2e d3e|"D"fdef "G"d2B2|"D"A3 A A4:||
% abcbook-tune_id 63ae8f1cc7571ccd2040bf4e
% abcbook-tune_composer_id 
% abcbook-link-0 https://www.youtube.com/watch?v=7tIhWh88uyE
% abcbook-boost 0
% abcbook-difficulty 0
% abcbook-tags canberra pickers and fiddlers,old time tunes,© free
% abcbook-tablature 
% abcbook-transpose 
% abcbook-tuning ADAE
% abcbook-lastupdated 1738396185961
% abcbook-src-url https://tunebook.net/scrape/tunes.abc
% abcbook-soundfonts 
% abcbook-repeats 1


